packages/core/src/svgs/gamefi.svg

<svg width="24" height="24" viewBox="0 0 24 24" fill="none" xmlns="http://www.w3.org/2000/svg">
<g clip-path="url(#clip0_31_10621)">
<path d="M0 0H24V24H0V0Z" fill="#B9FB01"/>
<path d="M5.57153 7.007L6.99439 5.57129L9.42868 8.03129L9.43725 8.027L10.8558 9.46272V9.47129L9.43725 10.907L9.42868 10.9027L6.99439 13.3627L5.57153 11.927L8.0101 9.467L5.57153 7.007ZM18.4287 12.0727L17.0058 10.637L14.5715 13.097L14.563 13.0927L13.1444 14.5284V14.537L14.563 15.9727L14.5715 15.9684L17.0058 18.4284L18.4287 16.9927L15.9901 14.5327L18.4287 12.0727ZM13.2858 16.9927L11.8715 18.4284L9.42868 15.9684L6.99439 18.4284L5.57153 16.9927L8.0101 14.5327L8.00153 14.5284L9.42868 13.0927L9.43296 13.097L9.44153 13.0927L10.8601 14.5284V14.5327L13.2858 16.9927ZM16.8558 5.57129L18.2787 7.007L15.8444 9.467L15.8487 9.47129L14.4258 10.907L14.4215 10.9027L14.413 10.907L12.9944 9.47129L12.9987 9.467L10.5601 7.007L11.9787 5.57129L14.4172 8.03129L16.8515 5.57129H16.8558Z" fill="#0A0A0A"/>
</g>
<defs>
<clipPath id="clip0_31_10621">
<rect width="24" height="24" fill="white"/>
</clipPath>
</defs>
</svg>

<svg xmlns="http://www.w3.org/2000/svg" width="24" height="24" fill="none" viewBox="0 0 24 24"><g clip-path="url(#a)"><path fill="#B9FB01" d="M0 0h24v24H0z"/><path fill="#0A0A0A" d="m5.572 7.007 1.422-1.436 2.435 2.46.008-.004 1.419 1.436v.008l-1.419 1.436-.008-.004-2.435 2.46-1.422-1.436 2.438-2.46zm12.857 5.066-1.423-1.436-2.434 2.46-.009-.004-1.419 1.435v.009l1.419 1.436.008-.005 2.435 2.46 1.423-1.435-2.439-2.46zm-5.143 4.92-1.415 1.435-2.442-2.46-2.435 2.46-1.422-1.435 2.438-2.46-.008-.005 1.427-1.435.004.004.009-.004 1.418 1.435v.005zm3.57-11.422 1.423 1.436-2.435 2.46.005.004-1.423 1.436-.005-.004-.008.004-1.419-1.436.005-.004-2.439-2.46 1.419-1.436 2.438 2.46 2.435-2.46z"/></g><defs><clipPath id="a"><path fill="#fff" d="M0 0h24v24H0z"/></clipPath></defs></svg>
